packages/ui-icons/svg/Solid/certified.svg

<svg viewBox="0 0 1920 1920" version="1.1" xmlns="http://www.w3.org/2000/svg">
    <path d="M960,15 L693.226667,257.026667 L333.44,243.053333 L284.693333,599.96 L0,820.546667 L192,1125.18667 L115.733333,1477.18667 L458.666667,1587.16 L626.56,1905.77333 L960,1769.56 L1293.44,1905.77333 L1461.33333,1587.16 L1804.26667,1477.18667 L1728,1125.18667 L1920,820.546667 L1635.30667,599.96 L1586.56,243.053333 L1226.66667,257.026667 L960,15 Z M1312.74667,631.426667 L1460.58667,785.24 L860.586667,1362.52 L457.813333,959.746667 L608.64,808.92 L863.573333,1063.74667 L1312.74667,631.426667 Z" stroke="none" stroke-width="1" fill-rule="evenodd"/>
</svg>

<svg viewBox="0 0 1920 1920" xmlns="http://www.w3.org/2000/svg">
    <path d="M960 15 693.227 257.027 333.44 243.053 284.693 599.96 0 820.547l192 304.64-76.267 352 342.934 109.973 167.893 318.613L960 1769.56l333.44 136.213 167.893-318.613 342.934-109.973-76.267-352 192-304.64-284.693-220.587-48.747-356.907-359.893 13.974L960 15Zm352.747 616.427 147.84 153.813-600 577.28-402.774-402.773L608.64 808.92l254.933 254.827 449.174-432.32Z" fill-rule="evenodd"/>
</svg>
